X:2892
T:J.F. MacKenzie
O:england
R:pipe strathspey
S:Toby A. Rider, Los Angeles Scottish Fiddler's Association
M:4/4
L:1/8
K:A
a|"A" A<Ac>B c<ee>f| "A" a>fe>c "D" f>ef<a| "A" A<Ac>B  "A" c<ef>e| "E"
(3fga  e>c "A" A2 Aa|
"A" A<Ac>B c<ee>f| "A" a>fe>c "D" f>ef<a| "A" c2 e>c "D"  B>cf>e| "E" (3
fga e>c "A"  A2 A|
B|"A"  A<aa>e "D"f<af>e| "A"c<ef>e "D"f<af>e| "A"A<aa>e "D"f<af>e| (3fga
e>c "A"A2 A>B|
"A" A<aa>e "D"f<af>e| "A" c<ef>e f<af>e| "A" c2 e>c B>cf>e| "E"(3fga e>c
"A"A2 A||


